X:28
T:A New Scotch Tune
N:from 'Patie and Peggy', 1730
N:from The Scottish Music List, Vol2 No 99
Z:Bruce Olson
L:1/8
M:C|
K:F
FC|D2F2F2G2|A4f3 c|d2(fd) (cA) (GF)|G6 FG|\
A3 G A2B2|A2GFF2FG|A3 GA2B2|A2 (GF) F2 (FC)|D2F2F2G2|\
A4f3 d|(cA) (fd) (cA)(GF)|G6Bc|\
d2(d/e/f) (dc)(BA)|AAccd3 c|\
(cA) (fd) (cA)(GF)|F6|]

